packages/rn-bitcoin-icons/svg/outline/block.svg

<svg width="24" height="24" viewBox="0 0 24 24" fill="none" xmlns="http://www.w3.org/2000/svg">
<path d="M20.5391 8.67606V15.5524C20.5512 15.8014 20.4327 16.0559 20.1845 16.196L13.0531 20.2197C12.4152 20.5797 11.6357 20.5807 10.9969 20.2223L3.82016 16.1968C3.5659 16.0542 3.44711 15.7917 3.46487 15.5374V8.69449C3.44687 8.44374 3.56156 8.18452 3.80996 8.0397L10.9664 3.86752C11.6207 3.48606 12.4299 3.4871 13.0832 3.87025L20.1945 8.04063C20.4357 8.18211 20.5503 8.43167 20.5391 8.67606Z" stroke="black"/>
<path d="M3.82019 9.25312C3.3487 8.98865 3.34307 8.31197 3.81009 8.03969L10.9665 3.86751C11.6209 3.48605 12.43 3.48709 13.0834 3.87024L20.1946 8.04062C20.6596 8.31329 20.6539 8.98739 20.1845 9.25227L13.0531 13.276C12.4152 13.636 11.6357 13.637 10.9969 13.2786L3.82019 9.25312Z" stroke="black"/>
</svg>

<svg xmlns="http://www.w3.org/2000/svg" fill="none" viewBox="0 0 24 24" stroke="currentColor">
  <path d="M20.54 8.676v6.876a.694.694 0 01-.355.644l-7.132 4.024a2.096 2.096 0 01-2.056.002L3.82 16.197a.694.694 0 01-.355-.66V8.694a.694.694 0 01.345-.654l7.156-4.172a2.097 2.097 0 012.117.002l7.112 4.17a.693.693 0 01.344.636z"/>
  <path d="M3.82 9.253a.699.699 0 01-.01-1.213l7.156-4.172a2.097 2.097 0 012.117.002l7.112 4.17a.699.699 0 01-.01 1.212l-7.132 4.024a2.096 2.096 0 01-2.056.003L3.82 9.253z"/>
</svg>
